!!!COM: Lassus, Orlande de 
!!!CDT: 1532///-1594///
!!!OTL: Matona mia cara
!!!AGN: Madrigal
**kern	**kern	**kern	**kern
*M2/2	*M2/2	*M2/2	*M2/2
*MM156	*MM156	*MM156	*MM156
=1-	=1-	=1-	=1-
2F	2A	2c	2f
4F	4A	4c	4f
4F	4A	4c	4f
=2	=2	=2	=2
2E-	2B-	2e-	2g
2F	2A	2c	2f
=3	=3	=3	=3
2C	2G	2c	2e
2C	2G	2c	2e
=4	=4	=4	=4
2BB-	2B-	2d	2f
4GG	4d	4g	4b-
4AA	4c	4e	4a
=5	=5	=5	=5
2BB-	2B-	2d	4g
.	.	.	2f
2C	2G	2c	.
.	.	.	4e
=6	=6	=6	=6
2.FF	2.A	2.c	2.f
4r	4r	4r	4r
=7	=7	=7	=7
2F	2c	2f	2a
4F	4c	4f	4a
4F	4c	4f	4a
=8	=8	=8	=8
2E-	2e-	2g	2b-
2F	2c	2f	2a
=9	=9	=9	=9
2C	2c	2e	2g
2C	2c	2e	2g
=10	=10	=10	=10
2BB-	2d	2f	2b-
4GG	4r	4g	4b-
4AA	4c	4e	4a
=11	=11	=11	=11
2BB-	2B-	2d	4g
.	.	.	2f
2C	4A	2c	.
.	4G	.	4e
=12	=12	=12	=12
2FF	2A	2c	2f
4r	4r	4r	4r
4F	4c	4f	4a
=13	=13	=13	=13
4BB-	4d	4f	4b-
4BB-	4d	4f	4b-
4F	4c	4f	4a
4C	4c	4e	4g
=14	=14	=14	=14
2D	2A	2d	2f#
2D	2A	4d	2f#
.	.	[4d	.
=15	=15	=15	=15
2G	2B	4d]	2g
.	.	4e	.
4F	2c	4f	2a
4A	.	4e	.
=16	=16	=16	=16
2G	4d	2.g	4b
.	4e-	.	2cc
2G	2d	.	.
.	.	4r	4b
=17	=17	=17	=17
2C	2c	2e	2cc
4F	4c	4f	4a
4F	4c	4f	4a
=18	=18	=18	=18
2F	2c	2f	2a
8C	8c	8e	8g
8D	8A	8d	8f
8E	8G	8c	8g
8F	8A	8c	8f
=19	=19	=19	=19
2BB-	4F	4B-	4d
.	4B-	4d	2f
2C	4A	2c	.
.	4G	.	4e
=20	=20	=20	=20
2FF	2A	2c	2f
4F	4c	4f	4a
4F	4c	4f	4a
=21	=21	=21	=21
2F	2c	2f	2a
8C	8c	8e	8g
8D	8A	8d	8f
8E	8G	8c	8g
8F	8A	8c	8f
=22	=22	=22	=22
2BB-	4F	4B-	4d
.	4B-	4d	2f
2C	4A	2c	.
.	4G	.	4e
=23	=23	=23	=23
2FF	2F	2A	2f
4r	4r	4r	4r
4C	4G	4c	4e
=24	=24	=24	=24
4C	4G	4c	4e
4C	4G	4c	4e
4BB-	4B-	4d	4f
4C	4G	4c	4e
=25	=25	=25	=25
2GG	2G	2B	2d
2C	4G	4c	2e
.	4G	4c	.
=26	=26	=26	=26
4r	2B-	2d	4r
4BB-	.	.	4f
4E-	2B-	2e-	4g
4E-	.	.	4g
=27	=27	=27	=27
2BB-	2B-	2d	2f
2F	2A	2c	4r
.	.	.	4f
=28	=28	=28	=28
2BB-	2B-	2d	2f
4r	4r	4r	4r
4C	4G	4c	4e
=29	=29	=29	=29
4C	4G	4c	4e
4C	4G	4c	4e
4BB-	4B-	4d	4f
4C	4G	4c	4e
=30	=30	=30	=30
2GG	2G	2B	2d
2C	4G	4c	2e
.	4G	4c	.
=31	=31	=31	=31
4r	2B-	2d	4r
4BB-	.	.	4f
4E-	2B-	2e-	4g
4E-	.	.	4g
=32	=32	=32	=32
2BB-	2B-	2d	2f
2F	2A	2c	4r
.	.	.	4f
=33	=33	=33	=33
2BB-	2B-	2d	2f
4r	4r	4r	4r
4F	4A	4c	4f
=34	=34	=34	=34
4C	4c	4e	4g
4C	4c	4e	4g
4F	4c	4f	4a
4F	4c	4f	4a
=35	=35	=35	=35
2G	2B	2d	2g
2C	4c	2e	4r
.	[4c	.	4g
=36	=36	=36	=36
2F	4c]	2f	2a
.	4c	.	.
4F	2A	2c	4f
4A	.	.	4e
=37	=37	=37	=37
2G	4B	4d	2g
.	2c	4e	.
2G	.	2d	2g
.	4B	.	.
=38	=38	=38	=38
2C	2c	2e	2g
4F	4c	4f	4a
4F	4c	4f	4a
=39	=39	=39	=39
2F	2c	2f	2a
8C	8c	8e	8g
8D	8A	8d	8f
8E	8G	8c	8g
8F	8A	8c	8f
=40	=40	=40	=40
2BB-	4F	4B-	4d
.	4B-	4d	2f
2C	4A	2c	.
.	4G	.	4e
=41	=41	=41	=41
2FF	2A	2c	2f
4F	4c	4f	4a
4F	4c	4f	4a
=42	=42	=42	=42
2F	2c	2f	2a
8C	8c	8e	8g
8D	8A	8d	8f
8E	8G	8c	8g
8F	8A	8c	8f
=43	=43	=43	=43
2BB-	4F	4B-	4d
.	4B-	4d	2f
2C	4A	2c	.
.	4G	.	4e
=44	=44	=44	=44
2FF	2F	2A	2f
4r	4r	4r	4r
4F	4A	4c	4f
=45	=45	=45	=45
4D	4A	4d	4f
4C	4c	4e	4g
4F	4c	4f	4a
4BB-	4d	4f	4b-
=46	=46	=46	=46
2F	2c	2f	2a
2F	2c	4f	4a
.	.	4f	4a
=47	=47	=47	=47
4r	4r	2g	2b-
4E-	4e-	.	.
2F	2c	4r	4r
.	.	4f	4a
=48	=48	=48	=48
4r	4r	2g	2b-
4E-	4e-	.	.
4F	4c	[2f	2a
4F	4c	.	.
=49	=49	=49	=49
2B-	2d	4f]	2f
.	.	2d	.
2G	2B-	.	2g
.	.	4e	.
=50	=50	=50	=50
2F	2c	2f	2a
4r	4r	4r	4r
4F	4A	4c	4f
=51	=51	=51	=51
4D	4A	4d	4f
4C	4c	4e	4g
4F	4c	4f	4a
4BB-	4d	4f	4b-
=52	=52	=52	=52
2F	2c	2f	2a
2F	2c	4f	4a
.	.	4f	4a
=53	=53	=53	=53
4r	4r	2g	2b-
4E-	4e-	.	.
2F	2c	4r	4r
.	.	4f	4a
=54	=54	=54	=54
4r	4r	2g	2b-
4E-	4e-	.	.
4F	4c	[2f	2a
4F	4c	.	.
=55	=55	=55	=55
2B-	2d	4f]	2f
.	.	2d	.
2G	2B-	.	2g
.	.	4e	.
=56	=56	=56	=56
2.F	2c	2f	2a
.	4r	4r	4r
4r	4A	4c	4cc
=57	=57	=57	=57
2.r	4B-	4d	4f
.	4G	4B-	4g
.	4F	4c	4a
4r	4B-	4d	4f
=58	=58	=58	=58
2.r	2E-	2e-	2g
.	2B-	2d	2f
4r	.	.	.
=59	=59	=59	=59
2F	2c	2f	2a
4F	4c	4f	4a
4A	4c	4e	4a
=60	=60	=60	=60
2F	2f	2a	2cc
2G	2d	2g	2b
=61	=61	=61	=61
2C	2c	2e	2cc
4F	4c	4f	4a
4F	4c	4f	4a
=62	=62	=62	=62
2F	2c	2f	2a
8C	8c	8e	8g
8D	8A	8d	8f
8E	8G	8c	8g
8F	8A	8c	8f
=63	=63	=63	=63
2BB-	4F	4B-	4d
.	4B-	4d	2f
2C	4A	2c	.
.	4G	.	4e
=64	=64	=64	=64
2FF	2A	2c	2f
4F	4c	4f	4a
4F	4c	4f	4a
=65	=65	=65	=65
2F	2c	2f	2a
8C	8c	8e	8g
8D	8A	8d	8f
8E	8G	8c	8g
8F	8A	8c	8f
=66	=66	=66	=66
2BB-	4F	4B-	4d
.	4B-	4d	2f
2C	4A	2c	.
.	4G	.	4e
=67	=67	=67	=67
2FF	2F	2A	2f
4r	4r	4r	4r
4C	4G	4c	4e
=68	=68	=68	=68
4F	4A	4c	4f
4F	4A	4d	4f
4E-	4B-	4e-	4g
4G	4B-	4d	4g
=69	=69	=69	=69
2F	2c	2f	2a
2F	2c	2f	2a
=70	=70	=70	=70
2BB-	2B-	2f	2dd
4AA	4c	4f	4cc
4BB-	4d	[4f	4b-
=71	=71	=71	=71
2C	2c	4f]	4a
.	.	4e	2g
2D	2A	2d	.
.	.	.	4f#
=72	=72	=72	=72
2GG	2G	2B	2g
4r	4r	4r	4r
4C	4G	4c	4e
=73	=73	=73	=73
4F	4A	4c	4f
4F	4A	4d	4f
4E-	4B-	4e-	4g
4G	4B-	4d	4g
=74	=74	=74	=74
2F	2c	2f	2a
2F	2c	2f	2a
=75	=75	=75	=75
2BB-	2B-	2f	2dd
4AA	4c	4f	4cc
4BB-	4d	[4f	4b-
=76	=76	=76	=76
2C	2c	4f]	4a
.	.	4e	2g
2D	2A	2d	.
.	.	.	4f#
=77	=77	=77	=77
2GG	2G	2B	2g
4r	4r	4r	4r
4D	4A	4d	4f#
=78	=78	=78	=78
2D	2A	2d	2f#
4C	4c	4e	4g
[4F	[4c	[4f	[4a
=79	=79	=79	=79
4F]	4c]	4f]	4a]
4G	4B-	4d	4g
2E-	2G	2c	2g
=80	=80	=80	=80
2D	2A	2d	2f#
2C	2c	[2e	4r
.	.	.	4g
=81	=81	=81	=81
2AA	2c	4e]	2a
.	.	4f	.
2BB-	2B-	2d	2f
=82	=82	=82	=82
2F	2A	2c	2f
2D	2F	2B	4r
.	.	.	4f
=83	=83	=83	=83
2C	2G	2c	2e
4F	4A	4c	4f
4F	4A	4c	4f
=84	=84	=84	=84
2F	2c	2f	2a
8C	8c	8e	8g
8D	8A	8d	8f
8E	8G	8c	8g
8F	8A	8c	8f
=85	=85	=85	=85
2BB-	4F	4B-	4d
.	4B-	4d	2f
2C	4A	2c	.
.	4G	.	4e
=86	=86	=86	=86
2FF	2A	2c	2f
4F	4c	4f	4a
4F	4c	4f	4a
=87	=87	=87	=87
2F	2c	2f	2a
8C	8c	8e	8g
8D	8A	8d	8f
8E	8G	8c	8g
8F	8A	8c	8f
=88	=88	=88	=88
2BB-	4F	4B-	4d
.	4B-	4d	2f
2C	4A	2c	.
.	4G	.	4e
=89	=89	=89	=89
2FF	2F	2A	2f
4r	4r	4r	4r
4BB-	4F	4B-	4d
=90	=90	=90	=90
2BB-	2F	2B-	2d
2D	4F	4r	4r
.	4F	4A	4d
=91	=91	=91	=91
4C	4G	4c	4e
4BB-	2B-	4d	4f
2F	.	2c	2f
.	4A	.	.
=92	=92	=92	=92
2BB-	2B-	2d	2.f
2D	4r	4r	.
.	4A	4d	4r
=93	=93	=93	=93
2E	2c	2G	4r
.	.	.	4g
2F	4r	2A	4f
.	[4d	.	4f
=94	=94	=94	=94
2G	4d]	2B	2d
.	2G	.	.
2C	.	2c	2e
.	4G	.	.
=95	=95	=95	=95
2F	2A	2c	2f
4r	4r	4r	4r
4BB-	4F	4B-	4d
=96	=96	=96	=96
2BB-	2F	2B-	2d
2D	4F	4r	4r
.	4F	4A	4d
=97	=97	=97	=97
4C	4G	4c	4e
4BB-	2B-	4d	4f
2F	.	2c	2f
.	4A	.	.
=98	=98	=98	=98
2BB-	2B-	2d	2.f
2D	4r	4r	.
.	4A	4d	4r
=99	=99	=99	=99
2E	2c	2G	4r
.	.	.	4g
2F	4r	2A	4f
.	[4d	.	4f
=100	=100	=100	=100
2G	4d]	2B	2d
.	2G	.	.
2C	.	2c	2e
.	4G	.	.
=101	=101	=101	=101
2F	2A	2c	2f
4r	4r	4r	4r
4BB-	4F	4B-	4d
=102	=102	=102	=102
4E-	4G	4B-	4e-
4BB-	4F	4B-	4d
4E-	4G	2B-	4e-
4BB-	4F	.	4d
=103	=103	=103	=103
2E-	2G	4B-	2g
.	.	4c	.
2D	4A	4d	2f#
.	4A	4d	.
=104	=104	=104	=104
4r	2c	2e-	4r
4C	.	.	4g
2G	4r	4r	2b-
.	4B-	4d	.
=105	=105	=105	=105
4r	2e-	2g	4r
4E-	.	.	4b-
2B-	4r	4r	2dd
.	4B-	4f	.
=106	=106	=106	=106
2F	4f	4a	4cc
.	4f	4a	2cc
4G	4e	4g	.
4G	4d	4g	4b
=107	=107	=107	=107
2C	2c	2e	2cc
4F	4c	4f	4a
4F	4c	4f	4a
=108	=108	=108	=108
2F	2c	2f	2a
8C	8c	8e	8g
8D	8A	8d	8f
8E	8G	8c	8g
8F	8A	8c	8f
=109	=109	=109	=109
2BB-	4F	4B-	4d
.	4B-	4d	2f
2C	4A	2c	.
.	4G	.	4e
=110	=110	=110	=110
2FF	2A	2c	2f
4F	4c	4f	4a
4F	4c	4f	4a
=111	=111	=111	=111
2F	2c	2f	2a
8C	8c	8e	8g
8D	8A	8d	8f
8E	8G	8c	8g
8F	8A	8c	8f
=112	=112	=112	=112
2BB-	4F	4B-	4d
.	4B-	4d	2f
2C	4A	2c	.
.	4G	.	4e
=113	=113	=113	=113
2FF	1F	2A	2f
4BB-	.	2B-	2d
4BB-	.	.	.
=114	=114	=114	=114
2FF	1F	2A	2c
8BB-	.	2B-	2d
8C	.	.	.
8D	.	.	.
8E	.	.	.
=115	=115	=115	=115
4F	1F	2A	2c
4FF	.	.	.
2BB-	.	2B-	2d
=116	=116	=116	=116
[1FF	[1F	[1A	[1c
=117	=117	=117	=117
1FF]	1F]	1A]	1c]
*-	*-	*-	*-
!!!ENC: Craig Sapp
!!!END: 2004/03/09/
!!!ONB: Test conversion with mid2hum program.
